public/images/sidebar/help-center.svg

<svg width="16" height="16" viewBox="0 0 16 16" fill="none" xmlns="http://www.w3.org/2000/svg">
<path fill-rule="evenodd" clip-rule="evenodd" d="M14.6666 8.00016C14.6666 11.6821 11.6818 14.6668 7.99992 14.6668C4.31802 14.6668 1.33325 11.6821 1.33325 8.00016C1.33325 4.31826 4.31802 1.3335 7.99992 1.3335C11.6818 1.3335 14.6666 4.31826 14.6666 8.00016ZM2.66659 8.00016C2.66659 10.9457 5.0544 13.3335 7.99992 13.3335C10.9454 13.3335 13.3333 10.9457 13.3333 8.00016C13.3333 5.05464 10.9454 2.66683 7.99992 2.66683C5.0544 2.66683 2.66659 5.05464 2.66659 8.00016Z" fill="#162D45"/>
<path d="M7.99992 14.9168C11.8199 14.9168 14.9166 11.8201 14.9166 8.00016H14.4166C14.4166 11.544 11.5437 14.4168 7.99992 14.4168V14.9168ZM1.08325 8.00016C1.08325 11.8201 4.17995 14.9168 7.99992 14.9168V14.4168C4.45609 14.4168 1.58325 11.544 1.58325 8.00016H1.08325ZM7.99992 1.0835C4.17995 1.0835 1.08325 4.18019 1.08325 8.00016H1.58325C1.58325 4.45634 4.45609 1.5835 7.99992 1.5835V1.0835ZM14.9166 8.00016C14.9166 4.18019 11.8199 1.0835 7.99992 1.0835V1.5835C11.5437 1.5835 14.4166 4.45634 14.4166 8.00016H14.9166ZM7.99992 13.0835C5.19247 13.0835 2.91659 10.8076 2.91659 8.00016H2.41659C2.41659 11.0838 4.91633 13.5835 7.99992 13.5835V13.0835ZM13.0833 8.00016C13.0833 10.8076 10.8074 13.0835 7.99992 13.0835V13.5835C11.0835 13.5835 13.5833 11.0838 13.5833 8.00016H13.0833ZM7.99992 2.91683C10.8074 2.91683 13.0833 5.19271 13.0833 8.00016H13.5833C13.5833 4.91657 11.0835 2.41683 7.99992 2.41683V2.91683ZM2.91659 8.00016C2.91659 5.19272 5.19247 2.91683 7.99992 2.91683V2.41683C4.91633 2.41683 2.41659 4.91657 2.41659 8.00016H2.91659Z" fill="#162D45"/>
<path d="M6.96126 6.08934C6.96126 5.57593 7.39583 5.15267 7.94126 5.15267C8.48549 5.15267 8.91993 5.57605 8.91993 6.08934C8.92569 6.46404 8.83043 6.59411 8.36979 6.93033L8.3383 6.9533C7.55715 7.52332 7.22936 7.97792 7.27546 8.88196L7.2746 9.01334C7.2746 9.38153 7.57307 9.68 7.94126 9.68C8.30945 9.68 8.60793 9.38153 8.60793 9.01334V8.848C8.58969 8.47331 8.67013 8.36174 9.12425 8.03037L9.15586 8.0073C9.9315 7.44117 10.2673 6.9827 10.2532 6.07895C10.2533 4.83186 9.21428 3.81934 7.94126 3.81934C6.6672 3.81934 5.62793 4.83157 5.62793 6.08934C5.62793 6.45753 5.92641 6.756 6.2946 6.756C6.66279 6.756 6.96126 6.45753 6.96126 6.08934Z" fill="#162D45" stroke="#162D45" stroke-width="0.5"/>
<path d="M8.00008 10.5C8.46032 10.5 8.83341 10.8731 8.83341 11.3333C8.83341 11.7936 8.46032 12.1667 8.00008 12.1667C7.53984 12.1667 7.16675 11.7936 7.16675 11.3333C7.16675 10.8731 7.53984 10.5 8.00008 10.5Z" fill="#162D45" stroke="#162D45" stroke-width="0.5"/>
</svg>

<svg width="16" height="16" fill="none" xmlns="http://www.w3.org/2000/svg"><path fill-rule="evenodd" clip-rule="evenodd" d="M14.667 8A6.667 6.667 0 111.333 8a6.667 6.667 0 0113.334 0zm-12 0a5.333 5.333 0 1010.666 0A5.333 5.333 0 002.667 8z" fill="#162D45"/><path d="M8 14.917A6.917 6.917 0 0014.917 8h-.5A6.417 6.417 0 018 14.417v.5zM1.083 8A6.917 6.917 0 008 14.917v-.5A6.417 6.417 0 011.583 8h-.5zM8 1.083A6.917 6.917 0 001.083 8h.5A6.417 6.417 0 018 1.583v-.5zM14.917 8A6.917 6.917 0 008 1.083v.5A6.417 6.417 0 0114.417 8h.5zM8 13.084A5.083 5.083 0 012.917 8h-.5c0 3.084 2.5 5.584 5.583 5.584v-.5zM13.083 8A5.083 5.083 0 018 13.084v.5c3.084 0 5.583-2.5 5.583-5.584h-.5zM8 2.917A5.083 5.083 0 0113.083 8h.5c0-3.083-2.5-5.583-5.583-5.583v.5zM2.917 8A5.083 5.083 0 018 2.917v-.5A5.583 5.583 0 002.417 8h.5z" fill="#162D45"/><path d="M6.961 6.09c0-.514.435-.937.98-.937.544 0 .979.423.979.936.006.375-.09.505-.55.841l-.032.023c-.78.57-1.109 1.025-1.063 1.929v.131a.667.667 0 101.333 0v-.165c-.018-.375.062-.486.516-.818l.032-.023c.775-.566 1.111-1.024 1.097-1.928 0-1.247-1.039-2.26-2.312-2.26-1.274 0-2.313 1.013-2.313 2.27a.667.667 0 001.333 0zM8 10.5a.833.833 0 110 1.667.833.833 0 010-1.667z" fill="#162D45" stroke="#162D45" stroke-width=".5"/></svg>
